X:1
T:HWV1A2N30 - Sanerà la piaga un dì
T:HWV1A2N30 - Sanerà la piaga un dì
T: Act 2 aria in d minor for soprano is Almira MuseScore 2 CC0©EJM. For more Handel Please see http://handel.ejmauath.com/
T:Händel, Georg Friedrich
T:Feustking, Friedrich Christian
T:Sequenced by Edward James Maurath
T:Sequenced by Edward James Maurath
T:Sequenced by Edward James Maurath
C:Händel, Georg Friedrich
Z:Feustking, Friedrich Christian
Z:Sequenced by Edward James Maurath
%%score 1 2 { 3 | 4 }
L:1/8
Q:1/4=60
M:4/4
K:F
V:1 treble nm="Soprano\nas Almira" snm="SOP"
V:2 bass nm="Bassoon\nContinuo" snm="BSN"
V:3 treble nm="Cembalo\ncontinuo" snm="CEM"
V:4 bass 
V:1
"^[no marking]" z8 | z8 | z4 A4- | A/d/^c/=B/ A/G/F/E/ FD_BB | A2 z2 z4 | %5
w: ||Sa-|* * * * * * ne- * rà la pian- gaun|dì,|
 d2- d/f/e/d/ ^c/=B/A/G/ F/E/F/D/ | B2 AB/A/ G2 dd | dccc cBBB | BAff feef | d^cde A4- | %10
w: sa- * * ne- * rà * la * pia- * ga un|dì chi la- * pri dul- ce|men- toin ques- to pet- to, dul- ce|men- toin que- sto pet- to,- sa ne-|rà la pia- gaun dì,|
 A4 z2 F/E/F/D/ | A4 z4 | z2 B>G A>F G>e | f>g e>A d^cde | f/e/g/d/ T^c2 d2 cA | BG A3 B FE/D/ | %16
w: * chi- * la- *|pri|dul- ce- men- toin que- sto|pet- t0, dul- * men- toin que- sto|pe- * * * * to, dul- ce-|men- toin que- sto pet- * *|
 D2 z2 z4 | z8 |1 z6 AF | cfef c4 | z2 cc d/c/B/d/ c/B/A/c/ | B/A/G/B/ Ag/g/ a/g/f/a/ g/f/e/g/ | %22
w: to.||og- niag|no- scia fug- gi- rà,|fug- gi- * * * * * * * *|* * * * rà, fug- gi _ _ _ _ _ _ _ _|
 f/e/d/f/ ee/g/ dgeg | =B/A/G/A/ B/c/d/e/ f2- f/a/g/f/ | eg/B/ B/d/c/B/ Ad/f/ =B>c | %25
w: _ _ _ _ ra`, il tor- men to ce- de-|ra, _ _ _ _ _ _ _ _ _ _ _ _|_ _ _ _ _ _ _ _ _ _ ce- de-|
 c2 ee ee d/c/=B/A/ | ^GG z2 z4 | z6 =B>B | c/=B/c/A/ f/e/d/c/ B/A/B/G/ e/d/c/B/ | %29
w: ra a le sma- nie del * di- *|let- to,|a le|sma- * nie * del * di * let- * * * * * * *|
 A/c/=B/c/ d/B/c/d/ ^GA z B/c/ | ^GA=Bc GA[Q:1/4=48]"^[slower]" f>d | %31
w: * * * * * * * * * to, a le|sma- nie del di let- to, a le|
 e>c d>=B e/d/c/d/[Q:1/4=36]"^[slower]" B>A | A2[Q:1/4=60]"^[Tempo 1]" z2 z4 :|2 z8 |] %34
w: sma- nie del di- * * * * * *|to.||
V:2
"^Hidden continuo by\nEdward J. Maurath" D,E,F,G, A,D^CA, | DB,G,E F,DE,^C | D,G,A,A,, D,E,F,G, | %3
 A,D^CA, DB,G,E | F,DE,^C D,G,A,A,, | D,E,F,G, A,^CDB, | G,EF,D E,^CF,G, | A,A,,E,F, G,G,,D,E, | %8
 F,F,,A,B, CC,G,A, | B,A,B,G, A,2 D,E, | F,G,A,D ^CA, z2 | z2 D,E, F,G,A,D | ^CA,G,E F,DC,C | %13
 D,B,C,A, B,,A,G,B,, | A,,G,,G,A,, D,D,,A,,^F, | G,,E,F,,G,, A,,D,A,A,, | D,E,F,G, A,D^CA, | %17
 DB,G,E F,DE,^C |1 D,G,A,A,, !fermata!D,2 z2 | z4 F,,G,,A,,B,, | C,F,E,F, B,,G,A,,F, | %21
 G,,E,F,C, F,DE,C | D,=B,C,C B,=B,,C,C | G,2 F,E, D,C,=B,,A,, | C,D,E,E,, F,D,G,G,, | %25
 C,2 C,A, =B,,^G,A,,F, | E,EA,F G,EF,D | E,CD,=B, C,A,D,E, | A,,A,D,F, G,G,,C,E, | %29
 F,A,F,D, E,C,D,A,, | E,C,D,A,, E,C,D,=B, | C,A,=B,,^G, C,D,E,E,, | z8 :|2 %33
 D,G,A,A,, !fermata!D,2 z2 |] %34
V:3
 A4- A/ d/ ^c/ =B/ A/ G/ F/ E/ | F [^CE] B [GB] [DA]2 G [EG] | %2
 [A,F] [B,DG] [^CEA] [EG^c] [Fd] z D z | [DF] z [EA] z A F [EB] [GB] | %4
 z2 G [EG] [A,F] [B,DG] [^CEA] [EGA^c] | [FAd] z z2 ^C [EA] [FA] D | E z A, z A, E A B | %7
 F [CF] [CE] [A,C] [CE] [B,D] D E | [B,DF] [A,CF] [FA] [DFB] [FAc] [EGc] [EGc] [FAc] | %9
 D ^C D [CE] A4- | A4 [EGA] [^CEA] [A,DF]2 | [DFA]4 [A,DF] [B,EG] [DFA] [FAd] | %12
 [EGA] [^CEG] [B,G] [GB] [DA] [FA] [EG]2 | F D E A D ^C [B,D] [G,E] | %14
 F [B,DG] [B,^CEG] [CEA] !arpeggio![F,A,D] z z2 | %15
 D [G,B,E] [A,DF] [G,B,DE] [F,A,D] [G,B,D] [DF] [F,A,] | D2 A2- A/ d/ ^c/ =B/ A/ G/ F/ E/ | %17
 F [^CE] B [GB] [DA]2 G [EG] |1 [A,F] [B,DG] [^CEA] [EG^c] !arpeggio![Fd]2 z2 | z8 | %20
 [A,F] [CA] z [A,F] [DF] [B,D] [CE] [A,C] | [B,D] G, A, E A F G E | F D E G z4 | %23
 [=B,D] z B, z F z z2 | [EG] z z2 [A,C] D [G,=B,]2 | !arpeggio![EG]2 E C [=B,E] [E^G] [A,D] F | %26
 =B, ^G F D E =G [A,D] F | [EG]2 [=B,F] [DF] E [CE] F D | [CE] [CE] F D =B, B, E C | %29
 A, F D F ^G, A, =B, D | =B, A, B, C [^G,B,] A, F F | G C D z A, z ^G [EG] | %32
 !arpeggio![^CEA]2 z2 z4 :|2 [A,F] [B,DG] [^CEA] [EG^c] !arpeggio![Fd]2 z2 |] %34
V:4
 [D,F] E, F, G, A, D ^C A, | D B, G, E F, D [E,A,] ^C | D, G, A, A,, [D,A,] E, [F,A,] G, | %3
w: |||
 A, D ^C A, D B, G, E | F, D [E,A,] ^C D, G, A, A,, | D, E, F, G, A, ^C D B, | %6
w: |||
 G, E F, D E, ^C [F,D] G, | A, A,, E, F, G, G,, D, E, | F, F,, A, B, C C, G, A, | %9
w: |||
 B, A, B, G, A,2 D, E, | F, G, A, D ^C A, z2 | z2 D, E, F, G, A, D | ^C A, G, E F, D C, C | %13
w: ||||
 D, B, C, A, B,, A, G, B,, | A,, G,, G, A,, !arpeggio!D, D,, A,, [^F,A,D] | %15
w: ||
 G,, E, F,, G,, A,, D, A, A,, | [D,F,] E, F, G, A, D ^C A, | D B, G, E F, D [E,A,] ^C |1 %18
w: |||
 D, G, A, A,, !arpeggio![D,A,]2 z2 | z4 [F,,A,C] G,, [A,,F,C] B,, | C, F, E, F, B,, G, A,, F, | %21
w: |||
 G,, E, F, C, F, D E, C | D, =B, C, C [B,D] [=B,,G] [C,G,E] [CEG] | G,2 F, E, D, C, =B,, A,, | %24
w: |||
 C, D, E, [E,,G,] F, D, G, G,, | !arpeggio!C,2 C, A, =B,, ^G, A,, F, | E, E A, F G, E F, D | %27
w: |||
 E, C D, =B, C, A, D, E, | A,, A, D, F, G, G,, C, E, | F, A, F, D, E, C, D, A,, | %30
w: |||
 E, C, D, A,, E, C, D, =B, | C, A, =B,, ^G, C, D, E, E,, | !arpeggio!A,,2 z2 z4 :|2 %33
w: |* * * * 6 * * *||
 D, G, A, A,, !arpeggio![D,A,]2 z2 |] %34
w: |

